packages/ui-icons/src/Basic/32/Support-avatar_32.svg

<svg xmlns="http://www.w3.org/2000/svg" viewBox="0 0 40 40"><path d="M34 14h-2.05A11 11 0 0 0 21 4h-2A11 11 0 0 0 8 14H6a4 4 0 0 0-4 4v4a4 4 0 0 0 4 4h4V15a9 9 0 0 1 .49-2.89l.15.09A25 25 0 0 0 23.88 16H30v11a4 4 0 0 1-4 4h-.14A4 4 0 0 0 22 28h-4a4 4 0 0 0 0 8h4a4 4 0 0 0 3.86-3H26a6 6 0 0 0 6-6v-1h2a4 4 0 0 0 4-4v-4a4 4 0 0 0-4-4ZM8 24H6a2 2 0 0 1-2-2v-4a2 2 0 0 1 2-2h2Zm14 10h-4a2 2 0 0 1 0-4h4a2 2 0 0 1 0 4ZM11.69 10.5l-.35-.22A9 9 0 0 1 19 6h2a9 9 0 0 1 8.94 8h-6.06a23 23 0 0 1-12.19-3.5ZM36 22a2 2 0 0 1-2 2h-2v-8h2a2 2 0 0 1 2 2Zm-21 0a2 2 0 1 1 2-2 2 2 0 0 1-2 2Zm10 0a2 2 0 1 1 2-2 2 2 0 0 1-2 2Z"/></svg>

<svg id="Ready" xmlns="http://www.w3.org/2000/svg" viewBox="0 0 40 40"><title>Megaicons_work_32_1.8_cp</title><path d="M34,14H31.95A11,11,0,0,0,21,4H19A11,11,0,0,0,8,14H6a4,4,0,0,0-4,4v4a4,4,0,0,0,4,4h4V15a9,9,0,0,1,.49-2.89l.15.09A25,25,0,0,0,23.88,16H30V27a4,4,0,0,1-4,4h-.14A4,4,0,0,0,22,28H18a4,4,0,0,0,0,8h4a4,4,0,0,0,3.86-3H26a6,6,0,0,0,6-6V26h2a4,4,0,0,0,4-4V18A4,4,0,0,0,34,14ZM8,24H6a2,2,0,0,1-2-2V18a2,2,0,0,1,2-2H8ZM22,34H18a2,2,0,0,1,0-4h4a2,2,0,0,1,0,4ZM11.69,10.5l-.35-.22A9,9,0,0,1,19,6h2a9,9,0,0,1,8.94,8H23.88A23,23,0,0,1,11.69,10.5ZM36,22a2,2,0,0,1-2,2H32V16h2a2,2,0,0,1,2,2ZM15,22a2,2,0,1,1,2-2A2,2,0,0,1,15,22Zm10,0a2,2,0,1,1,2-2A2,2,0,0,1,25,22Z"/></svg>
